public/avatar/shoe/92.svg

<svg xmlns:xlink="http://www.w3.org/1999/xlink" height="38.3" width="36.05" xmlns="http://www.w3.org/2000/svg"><use height="16.5" transform="translate(7.45 12.15)" width="23.8" xlink:href="#a"/><defs><g id="a" fill-rule="evenodd"><path d="M-5.1-2.7q3.1-.15 3.4 1.55L.55-1q2.6.35 4.6 1.55 3.3 1.95 1.9 6.85.2 1.3-.95 2-8.3 4.6-15.8 4.4-5.6-.2-6.45-2.25v-.8q-.35-.85-.05-2.2.9-4.8 4.85-7.8 2.8-3.3 6.25-3.45" fill="#260b0a" transform="translate(16.35 2.7)"/><path d="M1.55 10.05q-4.1 1.5-6.9 1.9-5.7.9-8.05-.1-2.05-1-1.8-3.45.45-4.1 4.35-6.8Q-8.1-1.55-5-1.7q2.65-.2 2.9 1.3L0-.3Q2.5-.05 4.4.95 6.35 2 6.45 4.7q.05 2.15-.6 3.25-.45.6-4.3 2.1" fill="#ef6500" transform="translate(16.35 2.7)"/><path d="M5.15 8.45q-8.2 4.4-14.75 4.2-5.05-.15-5.6-1.7-.2-.5.25-1.05.4-.5.8-.5.3 0 .65 1 .7 1.1 2.65 1.55Q-6.35 13 1.9 9.5 5.45 8 6.1 6.8q.6.85-.95 1.65" fill="#9e4700" transform="translate(16.35 2.7)"/><path d="m-13.55 7.7.65-2.05q.85-2.25 2.15-3l1.5.2q-2.55 1-4.3 4.85" fill="#782e13" transform="translate(16.35 2.7)"/><path d="m1.4 3.55-1.9 1q-2.2.55-4.95 3.05-2.15 2-4.5 1.75-2.2-.25-1.85-.95l2.05-1.9 1.65-1.6q1.3-1.3 2.75-1.55Q-3.05 3-.4 3.4q.95 0 2.7-1.3Q3.7.95 4.4 1.6q1.4 1.1 1.15 2.35-.4-1.3-2.05-1.15-.85.05-2.1.75" fill="#f1943c" transform="translate(16.35 2.7)"/><path d="M-1.15 2.95q.55-.05.7 1.45Q-.4 6.25-1.9 8q-1.6 1.85-3.6 2.45l-1.8.25Q-4.5 9-3.05 7.15q1.5-1.8 1.9-4.2" fill="#ef6500" transform="translate(16.35 2.7)"/><path d="M-7 10.2q5.3-3.35 5.6-7.05Q-.45 8.3-7 10.2" fill="#fff" transform="translate(16.35 2.7)"/><path d="M1.7 7.05Q.85 8.3-2.15 9.2 1.95 6.65 2 3.35q.5 2.45-.3 3.7" fill="#fff" transform="translate(16.35 2.7)"/><path d="M-5.95-1.45q2.75-.4 3.6 1.05.5.7-.75 1.5-1.35.8-3.95 1.1-2.55.3-3.1-.45-.5-.6.35-1.35 1.45-1.5 3.85-1.85" fill="#f1943c" transform="translate(16.35 2.7)"/><path d="M3.55.95q-.7-.35-1.75.2l-1.55.8-1.95-.1L-2 .2.2.25q2.25.15 3.35.7" fill="#782e13" transform="translate(16.35 2.7)"/><path d="M6.1 7.3Q3 10.2-3.55 11.5l-7.95.3 1.75.1q2.75-.05 7.55-1.15 4.8-1.05 8.35-4l-.05.55" fill="#fff0e5" transform="translate(16.35 2.7)"/><path d="m-2.6 2.5-3.35.45-2 .4 3.4-1.25q1.35-.3 1.95.4" fill="#c94e20" transform="translate(16.35 2.7)"/><path d="M-6.35-.8-7.9-.85l2.2-.7q2.85-.1 3.25 1.4.35 1.35-1.5 1.55Q-3.8.95-4.4.05-4.75-.6-6.35-.8M3.4 1.55l.8.3q.85.4 1.05 1.15l.55 3.05q-.6-2.2-1.75-2.7Q3 3 2.5 2.3q-.5-.75.9-.75" fill="#ffce96" transform="translate(16.35 2.7)"/></g></defs></svg>

<?xml version="1.0" encoding="UTF-8" standalone="no"?>
<svg xmlns:xlink="http://www.w3.org/1999/xlink" height="38.3px" width="36.05px" xmlns="http://www.w3.org/2000/svg">
  <g transform="matrix(1.0, 0.0, 0.0, 1.0, 23.8, 14.85)">
    <use height="16.5" transform="matrix(1.0, 0.0, 0.0, 1.0, -16.35, -2.7)" width="23.8" xlink:href="#shape0"/>
  </g>
  <defs>
    <g id="shape0" transform="matrix(1.0, 0.0, 0.0, 1.0, 16.35, 2.7)">
      <path d="M-5.1 -2.7 Q-2.0 -2.85 -1.7 -1.15 L0.55 -1.0 Q3.15 -0.65 5.15 0.55 8.45 2.5 7.05 7.4 7.25 8.7 6.1 9.4 -2.2 14.0 -9.7 13.8 -15.3 13.6 -16.15 11.55 L-16.15 10.75 Q-16.5 9.9 -16.2 8.55 -15.3 3.75 -11.35 0.75 -8.55 -2.55 -5.1 -2.7" fill="#260b0a" fill-rule="evenodd" stroke="none"/>
      <path d="M1.55 10.05 Q-2.55 11.55 -5.35 11.95 -11.05 12.85 -13.4 11.85 -15.45 10.85 -15.2 8.4 -14.75 4.3 -10.85 1.6 -8.1 -1.55 -5.0 -1.7 -2.35 -1.9 -2.1 -0.4 L0.0 -0.3 Q2.5 -0.05 4.4 0.95 6.35 2.0 6.45 4.7 6.5 6.85 5.85 7.95 5.4 8.55 1.55 10.05" fill="#ef6500" fill-rule="evenodd" stroke="none"/>
      <path d="M5.15 8.45 Q-3.05 12.85 -9.6 12.65 -14.65 12.5 -15.2 10.95 -15.4 10.45 -14.95 9.9 -14.55 9.4 -14.15 9.4 -13.85 9.4 -13.5 10.4 -12.8 11.5 -10.85 11.95 -6.35 13.0 1.9 9.5 5.45 8.0 6.1 6.8 6.7 7.65 5.15 8.45" fill="#9e4700" fill-rule="evenodd" stroke="none"/>
      <path d="M-13.55 7.7 L-12.9 5.65 Q-12.05 3.4 -10.75 2.65 L-9.25 2.85 Q-11.8 3.85 -13.55 7.7" fill="#782e13" fill-rule="evenodd" stroke="none"/>
      <path d="M1.4 3.55 L-0.5 4.55 Q-2.7 5.1 -5.45 7.6 -7.6 9.6 -9.95 9.35 -12.15 9.1 -11.8 8.4 L-9.75 6.5 -8.1 4.9 Q-6.8 3.6 -5.35 3.35 -3.05 3.0 -0.4 3.4 0.55 3.4 2.3 2.1 3.7 0.95 4.4 1.6 5.8 2.7 5.55 3.95 5.15 2.65 3.5 2.8 2.65 2.85 1.4 3.55" fill="#f1943c" fill-rule="evenodd" stroke="none"/>
      <path d="M-1.15 2.95 Q-0.6 2.9 -0.45 4.4 -0.4 6.25 -1.9 8.0 -3.5 9.85 -5.5 10.45 L-7.3 10.7 Q-4.5 9.0 -3.05 7.15 -1.55 5.35 -1.15 2.95" fill="#ef6500" fill-rule="evenodd" stroke="none"/>
      <path d="M-7.0 10.2 Q-1.7 6.85 -1.4 3.15 -0.45 8.3 -7.0 10.2" fill="#ffffff" fill-rule="evenodd" stroke="none"/>
      <path d="M1.7 7.05 Q0.85 8.3 -2.15 9.2 1.95 6.65 2.0 3.35 2.5 5.8 1.7 7.05" fill="#ffffff" fill-rule="evenodd" stroke="none"/>
      <path d="M-5.95 -1.45 Q-3.2 -1.85 -2.35 -0.4 -1.85 0.3 -3.1 1.1 -4.45 1.9 -7.05 2.2 -9.6 2.5 -10.15 1.75 -10.65 1.15 -9.8 0.4 -8.35 -1.1 -5.95 -1.45" fill="#f1943c" fill-rule="evenodd" stroke="none"/>
      <path d="M3.55 0.95 Q2.85 0.6 1.8 1.15 L0.25 1.95 -1.7 1.85 -2.0 0.2 0.2 0.25 Q2.45 0.4 3.55 0.95" fill="#782e13" fill-rule="evenodd" stroke="none"/>
      <path d="M6.1 7.3 Q3.0 10.2 -3.55 11.5 L-11.5 11.8 -9.75 11.9 Q-7.0 11.85 -2.2 10.75 2.6 9.7 6.15 6.75 L6.1 7.3" fill="#fff0e5" fill-rule="evenodd" stroke="none"/>
      <path d="M-2.6 2.5 L-5.95 2.95 -7.95 3.35 -4.55 2.1 Q-3.2 1.8 -2.6 2.5" fill="#c94e20" fill-rule="evenodd" stroke="none"/>
      <path d="M-6.35 -0.8 L-7.9 -0.85 -5.7 -1.55 Q-2.85 -1.65 -2.45 -0.15 -2.1 1.2 -3.95 1.4 -3.8 0.95 -4.4 0.05 -4.75 -0.6 -6.35 -0.8" fill="#ffce96" fill-rule="evenodd" stroke="none"/>
      <path d="M3.4 1.55 L4.2 1.85 Q5.05 2.25 5.25 3.0 L5.8 6.05 Q5.2 3.85 4.05 3.35 3.0 3.0 2.5 2.3 2.0 1.55 3.4 1.55" fill="#ffce96" fill-rule="evenodd" stroke="none"/>
    </g>
  </defs>
</svg>
